X: 1
T: McGlinchey's
R: reel
M: 4/4
L: 1/8
K: Gdor
cBAc BGG^F | G2 (3DE^F GABG | ~G2 AF ~F2 Bc |
dggf g2 ag |fd ~d2 gfdc | ~B3c ~A3c |
cdcA BG (3BBc |1 BGG^F G4 :|2 BGG^F G2 Bc ||
|:(3ccB BA BdcA | (3Bcd AF G2 DE | ~F3G FC (3CCC | FEFG AcBA |
GABc dccc | dBAG AFFF | DG^FD GABc | dg^fa g Bc :|
|: dggg g2 ^fg |dgg^f d2 cB | cfff cfef | gfcA F2 Bc |
~d3B ~c3A | BABG AFDC |B,DGA BdcA | ^cd^FA G2 B=c :|


Tune 554	Setting 26683

